X:620
T: CHRISTUS DER HERR IM GARTEN GING
N: E1960
O: Europa, Mitteleuropa, Deutschland, Pommern, Garz
R: geistlich, Fest - Lied, Biblischer Stoff, Passion
M: 4/4
L: 1/8
K: F
FFF | E2F2G2A2 | F6
F2 | G2A2B2A2 | F2G2A2
G2 | G2G2A2G2 | F2E2D2
G2 | A2G2FDC2 | FGAG2F

